X: 15071
T: German, The
R: hornpipe
M: 4/4
K: Gmajor
|:(3efg dB GA (3BAG|FDEF E2 EF|(3GAB dG eG d2|(3efg dB GBFD|
(3efg dB GA (3BAG|FDEF E2 EF|(3GAB Ac Bdce|dfeg (3fga gf:|
|:1 dG z g dG z G|dGeG dGfg|dF z f dF z F|dFeF dFfg|
cE z E cE z E|cEdE cEde|BD z D BD z D|BDcD BDde|
AD z D AD z D|ADcD BDAD|(3GAB Ac Bdce|dfeg (3fga fg:|2 - g8||

